!!!!SEGMENT: pl-wn--sd-xvi-qu-273--012_gomolka-mikolaj--zachowaj-mie-o-sprawco-niebieskiego-domu.krn
!!!cenid: 15xx:217
!!!COM: Gomółka, Mikołaj
!!!COM-rismid: pe30013343
!!!CDT: ~1535->1591/04/30
!!!CNT: Polish
!!!GTL: Melodiae na psalterz polski
!!!OTL: XII. Zachowaj mię, o Sprawco niebieskiego domu!
!!!PDT: 1580
!!!AGN: Sacred
!!!SMS-siglum: PL-Wn
!!!SMS-shelfmark: SD XVI.Qu.273
!!!SMS-shelfwork: 012 G
!!!NIFC-rismid:
!!!ONB-nifc: Melodiae na psalterz polski
!!!ONB: There are two page 16s in the volume, this work ends on the first 16r.
**kern	**text	**kern	**text	**kern	**text	**kern	**text
*part4	*part4	*part3	*part3	*part2	*part2	*part1	*part1
*staff4	*staff4	*staff3	*staff3	*staff2	*staff2	*staff1	*staff1
*clefF3	*	*clefC3	*	*clefC2	*	*clefG2	*
*k[b-]	*	*k[b-]	*	*k[b-]	*	*k[b-]	*
*g:	*	*g:	*	*g:	*	*g:	*
*M4/2	*	*M4/2	*	*M4/2	*	*M4/2	*
*met(C)	*	*met(C)	*	*met(C)	*	*met(C)	*
*xywh-15r:429,5261,5080,1500	*	*xywh-15r:525,3996,5069,1329	*	*xywh-15r:525,2710,5123,1404	*	*xywh-15r:611,1145,5016,1618	*
=1-	=1-	=1-	=1-	=1-	=1-	=1-	=1-
2r	.	2r	.	2r	.	2r	.
2D	Zá-	2d	Zá-	2f#X	Zá-	2a	Zá-
1D	-cho-	1d	-cho-	1f#	-cho-	1a	-cho-
=2-	=2-	=2-	=2-	=2-	=2-	=2-	=2-
1G	-waj	1d	-waj	1g	-waj	1b-	(-waj)
2A	mię	2c#X/	mię	2e/	mię	2a	mię
2G	o	1d	o	2g	o	1dd	o
=3-	=3-	=3-	=3-	=3-	=3-	=3-	=3-
1B-	Spraw-	.	.	2.f	Spraw-	.	.
.	.	2d	Spraw-	.	.	2dd	Spraw-
.	.	.	.	4g	.	.	.
2A	(-co)	2e	(-co)	2a	-co	2cc	(-co)
1A	nie-	1c#X	nie-	1a	nie-	1ee	nie-
=4-	=4-	=4-	=4-	=4-	=4-	=4-	=4-
.	.	.	.	.	.	.	.
1D	-bie-	2d	-bie-	1a	-bie-	1ff	-bie-
.	.	1d	-skie-	.	.	.	.
2G	-skie-	.	.	2g	(-skie-	2dd	-sk(ie-
=5-	=5-	=5-	=5-	=5-	=5-	=5-	=5-
2.G	-go	4B-	-go	2.b-	-go)	1dd	-go)
.	.	4c/	.	.	.	.	.
.	.	1d	do-	.	.	.	.
4F	.	.	.	4a	.	.	.
0E	do-	.	.	1g	do-	1.gg	do-
.	.	4c#X/	.	.	.	.	.
.	.	4B-	.	.	.	.	.
=6-	=6-	=6-	=6-	=6-	=6-	=6-	=6-
.	.	4c/	.	1g	mu,	.	.
.	.	2d	.	.	.	.	.
!	!	!	!	!	!	!LO:TX:a:t=S:sic:# przy ee a powinien być przy pierwszym ff:problem	!
.	.	.	.	.	.	4ff	.
.	.	4c#X/	.	.	.	4ee#	.
2D	-mu,	2d	-mu,	2a	.	2ff#	-mu,
2D	Praw-	2d	Praw-	2f	Praw-	2a	Praw-
=7-	=7-	=7-	=7-	=7-	=7-	=7-	=7-
2A	-dy	2c/	-dy	2e/	-dy	2a	(-dy)
2F/	nié	2f	nié	2cc	nié	2a	nié
2G	(mász)	4e	(mász)	2b-	mász	4g	mász
.	.	4d	.	.	.	4f	.
2B-	na	1d	na	2g	na	4e	na
.	.	.	.	.	.	4d	.
=8-	=8-	=8-	=8-	=8-	=8-	=8-	=8-
1A	źie-	.	.	2.a	źie-	1e	źie-
.	.	2c#X/	źie-	.	.	.	.
.	.	.	.	4g	.	.	.
2D	-mi,	2d	-mi,	2f	-mi,	2d	-mi,
*xywh-15v:1266,5410,5042,1171	*	*xywh-15v:1234,4119,5118,1323	*	*xywh-15v:1223,2861,5097,1290	*	*xywh-15v:1169,1235,5086,1680	*
!!LO:PB:g=original
!LO:TX:a:t=S:sic:zły tekst w B:problem	!	!	!	!	!	!	!
1D	mié,	1d	nié	1f	nié	1a	nié
=9-	=9-	=9-	=9-	=9-	=9-	=9-	=9-
.	.	.	.	.	.	.	.
1G	mász	2.d	mász	1g	mász	1bn	(mász)
.	.	4e	.	.	.	.	.
2F/	u-	2f	u-	2a	u-	2cc	u-
=10-	=10-	=10-	=10-	=10-	=10-	=10-	=10-
1B-	-fáć	1d	-fáć	2.b-	-fáć	1.dd	-fáć
.	.	.	.	4a	.	.	.
1B-	ko-	1d	ko-	4g	.	.	.
.	.	.	.	4f	.	.	.
.	.	.	.	2g	ko-	4cc	ko-
.	.	.	.	.	.	4bn	.
=11-	=11-	=11-	=11-	=11-	=11-	=11-	=11-
2A	-mu.	2e	-mu.	2a	-mu.	2cc#X	-mu,
2A	Nie	2e	Nie	2a	Nie	2ee	Nie
2F/	us-	2.a	us-	2cc	us-	2.ff	us-
2F/	-ły-	.	.	2cc	-ły-	.	.
.	.	4g	-ły-	.	.	4ee	-ły-
=12-	=12-	=12-	=12-	=12-	=12-	=12-	=12-
2B-	-sz(ysz),	2f	(-szysz),	2b-	-szy(sz),	2dd	(-szysz),
2G	ied-	2g	ie(d-	2b-	ied-	1dd	ied-
1A	(-no)	1e	-no)	2.a	.	.	.
.	.	.	.	.	.	2cc	-no
.	.	.	.	4g	(-no)	.	.
=13-	=13-	=13-	=13-	=13-	=13-	=13-	=13-
2D	kłam	1d	kłam	1f#X	kłam	2b-y/	kłam
2.d	us-	.	.	.	.	2a	.
.	.	2f	us-	2a	us-	2dd	us-
4c	.	.	.	.	.	.	.
2B-	-tyć	2d	-ty	2b-	-tyć	2dd	-tyć
=14-	=14-	=14-	=14-	=14-	=14-	=14-	=14-
2c	poch-	2e	poch-	2g	poch-	2cc	poch-
2F/	-lé-	1f	-lé-	1a	-lé-	2cc	-lé-
1c	-biá-	.	.	.	.	1cc	-biá-
.	.	2e	-biá-	2g	-biá-	.	.
=15-	=15-	=15-	=15-	=15-	=15-	=15-	=15-
2F	-ją,	2f	-ją,	2a	-ją,	2cc	-ją,
1c	A	1e	A	1g	A	2cc	A
.	.	.	.	.	.	2g	.
*xywh-#47:525,5336,4984,1200	*	*xywh-#47:472,4039,5112,1339	*	*xywh-#47:461,2753,4962,1339	*	*xywh-#47:536,1145,4887,1661	*
!	!	!LO:TX:a:t=S:sic:brakuje dźwięku 2dd w źródle:problem	!	!	!	!	!
!!LO:PB:g=original
2G	w chyt-	2.d	w chyt-	2g	w chy(t-	2b-/	w chyt-
=16-	=16-	=16-	=16-	=16-	=16-	=16-	=16-
2B-	-rym	.	.	2.d	.	2.f	-rym
.	.	4c	(-rym)	.	.	.	.
2B-	ser-	2B-	ser-	.	.	.	.
.	.	.	.	4e/	-rym)	4g	ser-
2F/	-cu	2c/	-cu	2f	ser-	2a	-cu
2C	iá-	2c/	.	2e/	-cu	2g	iá-
=17-	=17-	=17-	=17-	=17-	=17-	=17-	=17-
2G	-du	2G	iá-	2d	iá-	2.b-/	.
1G	śmier-	2.B-	.	1g	-du	.	.
.	.	.	.	.	.	4cc	-du
.	.	.	.	.	.	4dd	śmier-
.	.	4c/	-du	.	.	4ee	-tel-
2D	-tel-	2d	śmier-	4f	śmier-	2ff	-né-
.	.	.	.	4g	.	.	.
=18-	=18-	=18-	=18-	=18-	=18-	=18-	=18-
2A	(-né-	2c/	-tel-	2a	-tel-	2ee	.
2F#X/	-go)	2d	-né-	2a	-né-	2dd	-go
0G	tá-	0B-	-go	1g	.	1.dd	tá-
=19-	=19-	=19-	=19-	=19-	=19-	=19-	=19-
.	.	.	.	1g	-go	.	.
.	.	.	.	.	.	4cc	.
.	.	.	.	.	.	4bn	.
1A	.	2.A	tá-	1e	tá-	2cc	.
.	.	.	.	.	.	2a	.
.	.	4B	.	.	.	.	.
=20-	=20-	=20-	=20-	=20-	=20-	=20-	=20-
0AA	-ją.	0c#X	-ją.	0e	-ią.	0a	-ją.
==	==	==	==	==	==	==	==
*-	*-	*-	*-	*-	*-	*-	*-
!!!RDF**kern: l = terminal long
!!!system-decoration: s1,s2,s3,s4
!!!RDF**kern: > = above
!!!ENC: Leszek Kubiak
!!!END: data 2020-02-03
!!!URL-scan: https://polona.pl/item/melodiae-na-psalterz-polski,Nzk3MTM4ODQ/44 Scan on Polona
!!!IIIF: https://polona.pl/iiif/item/Nzk3MTM4ODQ/manifest.json
